X:1
T:We Shall Meet
T:We Shall Meet
T:David Stiles Hakes
T:Mrs. E. W. Sawyer, 1882
T:Public Domain Courtesy of the Cyber Hymnal™
T:Public Domain Courtesy of the Cyber Hymnal™
C:David Stiles Hakes
Z:Public Domain
Z:Courtesy of the Cyber Hymnal™
%%score ( 1 2 ) ( 3 4 )
L:1/8
Q:1/4=95
M:3/4
K:Eb
V:1 treble 
V:2 treble 
V:3 bass 
V:4 bass 
V:1
 E[EF] | [EG]3 [EG] [EG][EG] | [EG]2 [B,E]2 [EG][FA] | [GB]3 [GB] [GB][GB] | ([GB]2 [EG]2) E[B,E] | %5
w: 1.~We shall|meet be- yond the|ri- ver, In that|glor- ious land of|bliss, * Where the|
w: 2.~We shall|meet with those de-|part- ed, From this|world of sin and|strife, * Meet no|
w: 3.~We shall|meet with Christ, our|Sav- ior, Soon to|come and take His|own; * Then we’ll|
 [CE]3 [CE] [CE][A,C] | [A,C]2 [G,B,]2 [B,E][B,E] | [DF]3 [DF] [EG][EF] | [DF]4 E[EF] | %9
w: Son shall reign for-|ev- er, As the|King of Right- eous-|ness; We shall|
w: long- er bro- ken|heart- ed, But with|an e- ter- nal|life. We shall|
w: share His bless- èd|fa- vor, And shall|know as we are|known. Oh! the|
 [EG]3 [EG] [EG][EG] | [EG]2 [B,E]2 [EG][FA] | [GB]3 [GB] [GB][GB] | ([GB]2 [EG]2) EE | %13
w: meet in yon- der|ci- ty, With its|walls of jas- per,|bright, * We shall|
w: meet and share the|glo- ry Of that|count- less, hap- py|throng, * We shall|
w: joy, the ex- ul-|ta- tion Of the|saints then tru- ly|His! * Oh! the|
 [Ee]3 [Ae] [Ac][Ac] | [Ac]2 [GB]2 [EB][FA] | [EG][B,E] B,2 [B,F]2 | [B,E]4 ||"^Refrain" E[_DE] | %18
w: shout our songs of|tri- umph, No more|sor- row, pain nor|night.||
w: tell re- demp- tion’s|sto- ry, Sing His|prais- es, loud and|long.|We shall|
w: glor- ious trans- for-|ma- tion, When we|see Him as He|is.||
 [CE]3 [EA] [EA][Ac] | [Ac] [GB]3 [GB][EG] | [GB]3 [EG] [GB][EG] | %21
w: |||
w: meet in yon- der|ci- ty By and|by and by and|
w: |||
"^riten." ([GB]2 !fermata![EG]2) EE | [Ee]3 [Ae] [Ac][Ac] | [Ac] [GB]3 [EB][FA] | %24
w: |||
w: by; * We shall|sing our songs for-|ev- er Round our|
w: |||
 [EG][B,E] B,2 [B,F]2 | [B,E]4 |] %26
w: ||
w: Sav- ior’s throne on|high.|
w: ||
V:2
 E x | x6 | x6 | x6 | x4 E x | x6 | x6 | x6 | x4 E x | x6 | x6 | x6 | x4 EE | x6 | x6 | x2 B,2 x2 | %16
 x4 || E x | x6 | x6 | x6 | x4 EE | x6 | x6 | x2 B,2 x2 | x4 |] %26
V:3
 [E,G,][E,A,] | [E,B,]3 [E,B,] [E,B,][E,B,] | [E,B,]2 [E,G,]2 [E,B,][E,B,] | %3
 [E,E]3 [E,E] [E,E][E,E] | (E2 B,2) [E,G,][E,G,] | [A,,A,]3 [A,,A,] [A,,A,][A,,E,] | %6
 E,2 E,2 [E,G,][E,G,] | [B,,B,]3 [B,,B,] [F,,F,=A,][F,,F,A,] | [B,,B,]4 [E,G,][E,A,] | %9
 [E,B,]3 [E,B,] [E,B,][E,B,] | [E,B,]2 [E,G,]2 [E,B,][E,B,] | [E,E]3 [E,E] [E,E][E,E] | %12
 (E2 B,2) [E,G,]E, | [A,,C]3 [A,,C] [A,,E][A,,E] | [E,E]2 [E,E]2 [G,,E][A,,C] | %15
 [B,,B,][B,,G,] [B,,G,]2 [B,,A,]2 | [E,G,]4 || [E,G,][E,B,] | [A,,A,]3 [A,,C] [A,,C][A,,E] | %19
 [E,E] [E,E]3 [E,E][E,B,] | [E,B,][E,B,] [E,B,][E,B,] [E,B,][E,B,] | !fermata![E,B,]4 E,E, | %22
 [A,,C]3 [A,,C] [A,,E][A,,E] | [E,E] [E,E]3 [G,,E][A,,C] | [B,,B,][B,,G,] [B,,G,]2 [B,,A,]2 | %25
 [E,G,]4 |] %26
V:4
 x2 | x6 | x6 | x6 | E,4 x2 | x6 | E,2 E,2 x2 | x6 | x6 | x6 | x6 | x6 | E,4 E, x | x6 | x6 | x6 | %16
 x4 || x2 | x6 | x6 | x6 | x4 E,E, | x6 | x6 | x6 | x4 |] %26

